assets/img/braze_icons/cpu-chip-01.svg

<svg fill="none" height="24" viewBox="0 0 24 24" width="24" xmlns="http://www.w3.org/2000/svg"><g fill="#801ed7"><path d="m10 10.8c0-.28 0-.42.0545-.527.0479-.0941.1244-.1706.2185-.2185.107-.0545.247-.0545.527-.0545h2.4c.28 0 .42 0 .527.0545.0941.0479.1706.1244.2185.2185.0545.107.0545.247.0545.527v2.4c0 .28 0 .42-.0545.527-.0479.0941-.1244.1706-.2185.2185-.107.0545-.247.0545-.527.0545h-2.4c-.28 0-.42 0-.527-.0545-.0941-.0479-.1706-.1244-.2185-.2185-.0545-.107-.0545-.247-.0545-.527z"/><path clip-rule="evenodd" d="m10 2c0-.55228-.44771-1-1-1-.55228 0-1 .44772-1 1v1.00163c-.47546.00326-.89102.01309-1.25183.04256-.56209.04593-1.0788.14449-1.56413.39178-.75265.3835-1.36457.99542-1.74807 1.74807-.24729.48533-.34585 1.00204-.39178 1.56413-.02947.36081-.0393.77637-.04256 1.25183h-1.00163c-.55228 0-1 .44772-1 1 0 .55229.44772 1 1 1h1v3h-1c-.55228 0-1 .4477-1 1s.44772 1 1 1h1v.2413c-.00001.805-.00002 1.4693.04419 2.0105.04593.5621.14449 1.0788.39178 1.5642.3835.7526.99542 1.3645 1.74807 1.748.48533.2473 1.00204.3459 1.56413.3918.36081.0295.77637.0393 1.25183.0426v1.0016c0 .5523.44772 1 1 1 .55229 0 1-.4477 1-1v-1h4v1c0 .5523.4477 1 1 1s1-.4477 1-1v-1.0016c.4755-.0033.891-.0131 1.2518-.0426.5621-.0459 1.0788-.1445 1.5642-.3918.7526-.3835 1.3645-.9954 1.748-1.748.2473-.4854.3459-1.0021.3918-1.5642.0442-.5412.0442-1.2055.0442-2.0105v-.2413h1c.5523 0 1-.4477 1-1s-.4477-1-1-1h-1v-3h1c.5523 0 1-.44771 1-1 0-.55228-.4477-1-1-1h-1.0016c-.0033-.47546-.0131-.89102-.0426-1.25183-.0459-.56209-.1445-1.0788-.3918-1.56413-.3835-.75265-.9954-1.36457-1.748-1.74807-.4854-.24729-1.0021-.34585-1.5642-.39178-.3608-.02947-.7763-.0393-1.2518-.04256v-1.00163c0-.55228-.4477-1-1-1s-1 .44772-1 1v1h-4zm.5681 6c-.2524-.00003-.4982-.00006-.70632.01695-.2286.01868-.49833.06274-.76976.20104-.37632.19175-.68228.49771-.87403.87403-.1383.27143-.18236.54116-.20104.76976-.01701.20812-.01698.45392-.01695.70632v2.8638c-.00003.2524-.00006.4982.01695.7063.01868.2286.06274.4984.20104.7698.19175.3763.49771.6823.87403.874.27143.1383.54116.1824.76976.2011.20812.017.45392.0169.70632.0169h2.8638c.2524 0 .4982.0001.7063-.0169.2286-.0187.4984-.0628.7698-.2011.3763-.1917.6823-.4977.874-.874.1383-.2714.1824-.5412.2011-.7698.017-.2081.0169-.4539.0169-.7063v-2.8638c0-.2524.0001-.4982-.0169-.70632-.0187-.2286-.0628-.49833-.2011-.76976-.1917-.37632-.4977-.68228-.874-.87403-.2714-.1383-.5412-.18236-.7698-.20104-.2081-.01701-.4539-.01698-.7063-.01695z" fill-rule="evenodd"/></g></svg>

<svg width="24" height="24" viewBox="0 0 24 24" fill="none" xmlns="http://www.w3.org/2000/svg">
<path d="M10 10.8C10 10.52 10 10.38 10.0545 10.273C10.1024 10.1789 10.1789 10.1024 10.273 10.0545C10.38 10 10.52 10 10.8 10H13.2C13.48 10 13.62 10 13.727 10.0545C13.8211 10.1024 13.8976 10.1789 13.9455 10.273C14 10.38 14 10.52 14 10.8V13.2C14 13.48 14 13.62 13.9455 13.727C13.8976 13.8211 13.8211 13.8976 13.727 13.9455C13.62 14 13.48 14 13.2 14H10.8C10.52 14 10.38 14 10.273 13.9455C10.1789 13.8976 10.1024 13.8211 10.0545 13.727C10 13.62 10 13.48 10 13.2V10.8Z" fill="#801ED7"/>
<path fill-rule="evenodd" clip-rule="evenodd" d="M10 2C10 1.44772 9.55229 1 9 1C8.44772 1 8 1.44772 8 2V3.00163C7.52454 3.00489 7.10898 3.01472 6.74817 3.04419C6.18608 3.09012 5.66937 3.18868 5.18404 3.43597C4.43139 3.81947 3.81947 4.43139 3.43597 5.18404C3.18868 5.66937 3.09012 6.18608 3.04419 6.74817C3.01472 7.10898 3.00489 7.52454 3.00163 8H2C1.44772 8 1 8.44772 1 9C1 9.55229 1.44772 10 2 10H3V13H2C1.44772 13 1 13.4477 1 14C1 14.5523 1.44772 15 2 15H3V15.2413C2.99999 16.0463 2.99998 16.7106 3.04419 17.2518C3.09012 17.8139 3.18868 18.3306 3.43597 18.816C3.81947 19.5686 4.43139 20.1805 5.18404 20.564C5.66937 20.8113 6.18608 20.9099 6.74817 20.9558C7.10898 20.9853 7.52454 20.9951 8 20.9984V22C8 22.5523 8.44772 23 9 23C9.55229 23 10 22.5523 10 22V21H14V22C14 22.5523 14.4477 23 15 23C15.5523 23 16 22.5523 16 22V20.9984C16.4755 20.9951 16.891 20.9853 17.2518 20.9558C17.8139 20.9099 18.3306 20.8113 18.816 20.564C19.5686 20.1805 20.1805 19.5686 20.564 18.816C20.8113 18.3306 20.9099 17.8139 20.9558 17.2518C21 16.7106 21 16.0463 21 15.2413V15H22C22.5523 15 23 14.5523 23 14C23 13.4477 22.5523 13 22 13H21V10H22C22.5523 10 23 9.55229 23 9C23 8.44772 22.5523 8 22 8H20.9984C20.9951 7.52454 20.9853 7.10898 20.9558 6.74817C20.9099 6.18608 20.8113 5.66937 20.564 5.18404C20.1805 4.43139 19.5686 3.81947 18.816 3.43597C18.3306 3.18868 17.8139 3.09012 17.2518 3.04419C16.891 3.01472 16.4755 3.00489 16 3.00163V2C16 1.44772 15.5523 1 15 1C14.4477 1 14 1.44772 14 2V3H10V2ZM10.5681 8C10.3157 7.99997 10.0699 7.99994 9.86178 8.01695C9.63318 8.03563 9.36345 8.07969 9.09202 8.21799C8.7157 8.40974 8.40974 8.7157 8.21799 9.09202C8.07969 9.36345 8.03563 9.63318 8.01695 9.86178C7.99994 10.0699 7.99997 10.3157 8 10.5681V13.4319C7.99997 13.6843 7.99994 13.9301 8.01695 14.1382C8.03563 14.3668 8.07969 14.6366 8.21799 14.908C8.40974 15.2843 8.7157 15.5903 9.09202 15.782C9.36345 15.9203 9.63318 15.9644 9.86178 15.9831C10.0699 16.0001 10.3157 16 10.5681 16H13.4319C13.6843 16 13.9301 16.0001 14.1382 15.9831C14.3668 15.9644 14.6366 15.9203 14.908 15.782C15.2843 15.5903 15.5903 15.2843 15.782 14.908C15.9203 14.6366 15.9644 14.3668 15.9831 14.1382C16.0001 13.9301 16 13.6843 16 13.4319V10.5681C16 10.3157 16.0001 10.0699 15.9831 9.86178C15.9644 9.63318 15.9203 9.36345 15.782 9.09202C15.5903 8.7157 15.2843 8.40974 14.908 8.21799C14.6366 8.07969 14.3668 8.03563 14.1382 8.01695C13.9301 7.99994 13.6843 7.99997 13.4319 8H10.5681Z" fill="#801ED7"/>
</svg>
